// Exercise 1
// start with a file containing only comments

// then complete this file as the tests progress


(* // Exercise 2
forward 100
forward 100 + 1 * 0
*)

(* // Exercise 3
forward 100
turnleft 90
color red
forward 100
*)

// Exercise 4
(*repeat 4 {
    forward 100
    turnleft 90
}*)


def abx(n) {
  forward 100
  turnleft 90
  forward 100
  turnleft 90
  forward 100
  turnleft 90
  forward 100
  turnleft 90
}
// forward 100
abx(1)